-----BEGIN PGP PUBLIC KEY BLOCK-----

mQINBGplkK4BEADY51CeCJC7fNlbI3OeITaE4wNBRWAJBiEdwxyYIoMpACnFxknH
ojcy7nqxHaVC5gP6QHHMTIyEFKkHWcdRANGsH5xGef0O1dh0rszuPgcEog4odHAu
8nVNDDSx6zGieO5tuHHNKE982mJKaCV9ixWARJ8AeX5ODYEHutSdOPid7moBdj9C
xu0NwaD+KrR8cVwX3KXrGOjAqKf9S8sGe7qp73DRGnA8/mfOjQe4klRwSKGK6Fd3
dUDcu+NUwrkU7aeF0okRONpZlBKnG9fm88YSyF3qGVWZpG17oxuJUKf/SI/C+gVb
as2m+UeiILUTp44GQNph06VlMqwkeWotlEzL+8Vs/phUK7o4qrjc0l9GQsRbSkNW
nW5qsx3Q9IBp4Er0zp3tgKsBMTosN7+/4aoDFVzs/8E9+M1+kiH4ILD5fV4XU3sF
CmkSq32HvOxB7Dfgwti3l4AWhrYlrMVDt71aDDGufKeovdrFqhVyELpsy3lQbWYf
7cu13G1KLPJlhuqQ3p6bf3SkPVXLqIZrRA5wJhcyaggbj3H7xxQ2UcbKwoGmkZPw
xZD3/yipMtBfJadoKCg4wnU6U6AijJWvkVkfP3H0boXPmhywRc+Tl2NLwGaXxfkw
+bDQL1acJBsO4YHanIvLtgF9XuigApu4HI+JC3JPvzgIy7CPyl7cUFCMnwARAQAB
tCZmZmYgQVBUIHJlcG9zaXRvcnkgPGEuc2FsdmlAZWFzeWdvLmlvPokCbgQTAQgA
WBYhBH1j0Wby3LWUhJ/YMAaqSRhRr89oBQJqZZCuGxSAAAAAAAQADm1hbnUyLDIu
NSsxLjEyLDAsMwMbLwQFCwkIBwICIgIGFQoJCAsCBBYCAwECHgcCF4AACgkQBqpJ
GFGvz2gqKxAApK4vwiQbGj7vq5LYGvy08tJwdAaAaQfw5/PBln7I8H2RCp5/ZFga
PRikd94qcXVLviQ/VvD1Rs2ouSTjicrMZu5UTIC9gVqVlEGn/mPrg/YpvCczpw31
/AgGzFUCgLQf7rksJxtELgNaiJUY8H0f433+Om3D27zKLphJxtDnGlr1rXY8dlJQ
PP6Q4Ae1+dPbuYO+CRm36f8owxclbzAc7kcOl4ih2KQk8k5vq1pxMDCc68IpD/rs
rWMsrjn2gRiCQ7gUe/JwGtQSJ4aHBCYONf2Kb+fTJMejfHnYpd7ISqjtqNeE8Web
396XhN92TV2CF39GFYe1IyEVcMv+7yhtJq1/i/CWbVW+ZW3N85mENpyEBx3BMHy3
bJTDvJPuQKmHkTKSAZeCzZiEr3dyYjCE57rhoSxkNIH2L3JoELoStE9mhsYfUQuH
UGBuEbL74J220QLu1heWLEpmHuwkbyJxY5OQz8FhGjpQFqI8raRQoOdbEn4TNTu6
7uz0QI5rAA8NhdovtiO1hQY7iRCA1W3xIFermcvcLL9fyX5v5nJDjuGVFu4vrv3v
rdzJwUuZ5pZUtU/Ko2AIJsvuXzPT/CK88sG+2GUNhqqf8IViyTMJ3VWNEzLgpLWu
lNjUjP7D7N77so6Lm8UHc09HK7HpuL2JVltkBPCF4pXeWZqWvHHEYOo=
=3Z+W
-----END PGP PUBLIC KEY BLOCK-----
